assets/svg/cash.svg

<svg fill="none" height="76" viewBox="0 0 50 76" width="50" xmlns="http://www.w3.org/2000/svg"><g fill="#3d4059"><path d="m25.3387 67.68c-6.2334 0-11.1634-1.3883-14.79-4.165-3.62669-2.8333-5.44003-6.6017-5.44003-11.305v-2.805c0-.5667.28334-.85.85-.85h2.635c.56667 0 .85.2833.85.85v2.55c0 3.5133 1.44503 6.3467 4.33503 8.5s6.8566 3.23 11.9 3.23c4.7033 0 8.3016-.9633 10.795-2.89 2.4933-1.9833 3.74-4.7033 3.74-8.16 0-2.0967-.5667-3.91-1.7-5.44-1.0767-1.5867-2.7767-3.06-5.1-4.42-2.2667-1.36-5.4967-2.9183-9.69-4.675-4.42-1.87-7.7634-3.4283-10.03-4.675-2.21-1.2467-3.99503-2.805-5.35503-4.675-1.36-1.9267-2.04-4.3917-2.04-7.395 0-4.6467 1.58667-8.2167 4.76003-10.71 3.23-2.55 7.6783-3.825 13.345-3.825 6.1766 0 11.0216 1.41666 14.535 4.25 3.5133 2.8333 5.27 6.63 5.27 11.39v1.955c0 .5667-.2834.85-.85.85h-2.805c-.5667 0-.85-.2833-.85-.85v-1.7c0-3.57-1.36-6.4317-4.08-8.585-2.72-2.21-6.545-3.315-11.475-3.315-4.3067 0-7.6217.9067-9.945 2.72-2.3234 1.7567-3.485 4.3067-3.485 7.65 0 2.2667.5383 4.1083 1.615 5.525 1.0766 1.4167 2.6066 2.6633 4.59 3.74 2.04 1.02 5.1566 2.38 9.35 4.08 4.1933 1.7 7.565 3.3433 10.115 4.93 2.6066 1.53 4.6466 3.3433 6.12 5.44 1.4733 2.0967 2.21 4.6183 2.21 7.565 0 4.59-1.7 8.2733-5.1 11.05s-8.16 4.165-14.28 4.165z"/><rect height="76" rx="2.03008" width="4.06015" x="22.9854"/></g></svg>

<svg width="50" height="76" viewBox="0 0 50 76" fill="none" xmlns="http://www.w3.org/2000/svg">
<path d="M25.3387 67.68C19.1053 67.68 14.1753 66.2917 10.5487 63.515C6.92201 60.6817 5.10867 56.9133 5.10867 52.21V49.405C5.10867 48.8383 5.39201 48.555 5.95867 48.555H8.59367C9.16034 48.555 9.44367 48.8383 9.44367 49.405V51.955C9.44367 55.4683 10.8887 58.3017 13.7787 60.455C16.6687 62.6083 20.6353 63.685 25.6787 63.685C30.382 63.685 33.9803 62.7217 36.4737 60.795C38.967 58.8117 40.2137 56.0917 40.2137 52.635C40.2137 50.5383 39.647 48.725 38.5137 47.195C37.437 45.6083 35.737 44.135 33.4137 42.775C31.147 41.415 27.917 39.8567 23.7237 38.1C19.3037 36.23 15.9603 34.6717 13.6937 33.425C11.4837 32.1783 9.69867 30.62 8.33867 28.75C6.97867 26.8233 6.29867 24.3583 6.29867 21.355C6.29867 16.7083 7.88534 13.1383 11.0587 10.645C14.2887 8.095 18.737 6.82 24.4037 6.82C30.5803 6.82 35.4253 8.23666 38.9387 11.07C42.452 13.9033 44.2087 17.7 44.2087 22.46V24.415C44.2087 24.9817 43.9253 25.265 43.3587 25.265H40.5537C39.987 25.265 39.7037 24.9817 39.7037 24.415V22.715C39.7037 19.145 38.3437 16.2833 35.6237 14.13C32.9037 11.92 29.0787 10.815 24.1487 10.815C19.842 10.815 16.527 11.7217 14.2037 13.535C11.8803 15.2917 10.7187 17.8417 10.7187 21.185C10.7187 23.4517 11.257 25.2933 12.3337 26.71C13.4103 28.1267 14.9403 29.3733 16.9237 30.45C18.9637 31.47 22.0803 32.83 26.2737 34.53C30.467 36.23 33.8387 37.8733 36.3887 39.46C38.9953 40.99 41.0353 42.8033 42.5087 44.9C43.982 46.9967 44.7187 49.5183 44.7187 52.465C44.7187 57.055 43.0187 60.7383 39.6187 63.515C36.2187 66.2917 31.4587 67.68 25.3387 67.68Z" fill="#3D4059"/>
<rect x="22.9854" width="4.06015" height="76" rx="2.03008" fill="#3D4059"/>
</svg>
